launcher/android/assets/skins/day/svg/mapStar2.svg

<svg enable-background="new 0 0 258.00 258.00" height="258" viewBox="0 0 258 258" width="258" xmlns="http://www.w3.org/2000/svg" xmlns:xlink="http://www.w3.org/1999/xlink"><linearGradient id="a" gradientTransform="matrix(0 -1 1 0 -.581107 1.581107)" gradientUnits="objectBoundingBox" x1=".5" x2="1.66222" y1="1.08111" y2="1.08111"><stop offset="0" stop-color="#abc4ab"/><stop offset=".771552" stop-color="#d5e1d5"/><stop offset="1" stop-color="#fff"/></linearGradient><radialGradient id="b" cx="178.495" cy="213.639" gradientTransform="matrix(.990935752716 .134336644252 -.134336644252 .990935752716 30.317434352965 -22.041960727856)" gradientUnits="userSpaceOnUse" r="199.244"><stop offset="0" stop-color="#c7c400"/><stop offset=".387213" stop-color="#bead00"/><stop offset=".520927" stop-color="#b69600"/><stop offset=".706977" stop-color="#e88500"/><stop offset=".916279" stop-color="#eeb100"/><stop offset=".986046" stop-color="#f4dd00"/></radialGradient><path d="m44 3.99994h170c22.091 0 40 17.90856 40 39.99996v170.0001c0 22.091-17.909 40-40 40h-170c-22.0914 0-40-17.909-40-40v-170.0001c0-22.0914 17.9086-39.99996 40-39.99996z" fill="url(#a)" stroke="#000" stroke-linecap="square" stroke-linejoin="bevel" stroke-width="8"/><path d="m194.547 225.465-25.321-76.348 64.969-47.425-80.435.489-25.027-76.4447-24.392 76.6497-80.4363.179 65.3608 46.884-24.6858 76.555 64.7863-47.674z" fill="url(#b)" stroke="#fc9100" stroke-linejoin="round" stroke-width="4"/></svg>

﻿<?xml version="1.0" encoding="utf-8"?>
<!DOCTYPE svg PUBLIC "-//W3C//DTD SVG 1.1//EN" "http://www.w3.org/Graphics/SVG/1.1/DTD/svg11.dtd">
<svg xmlns="http://www.w3.org/2000/svg" xmlns:xlink="http://www.w3.org/1999/xlink" version="1.1" baseProfile="full" width="258" height="258" viewBox="0 0 258.00 258.00" enable-background="new 0 0 258.00 258.00" xml:space="preserve">
	<linearGradient id="SVGID_Fill1_" gradientUnits="objectBoundingBox" x1="0.5" y1="1.08111" x2="1.66222" y2="1.08111" gradientTransform="rotate(-90.000000 0.500000 1.081107)">
		<stop offset="0" stop-color="#ABC4AB" stop-opacity="1"/>
		<stop offset="0.771552" stop-color="#D5E1D5" stop-opacity="1"/>
		<stop offset="1" stop-color="#FFFFFF" stop-opacity="1"/>
	</linearGradient>
	<path fill="url(#SVGID_Fill1_)" stroke-width="8" stroke-linecap="square" stroke-linejoin="bevel" stroke="#000000" stroke-opacity="1" d="M 44,3.99994L 214,3.99994C 236.091,3.99994 254,21.9085 254,43.9999L 254,214C 254,236.091 236.091,254 214,254L 44,254C 21.9086,254 4,236.091 4,214L 4,43.9999C 4,21.9085 21.9086,3.99994 44,3.99994 Z "/>
	<radialGradient id="SVGID_Fill2_" cx="178.495" cy="213.639" r="199.244" gradientUnits="userSpaceOnUse" gradientTransform="rotate(7.720263 178.495117 213.638733)">
		<stop offset="0" stop-color="#C7C400" stop-opacity="1"/>
		<stop offset="0.387213" stop-color="#BEAD00" stop-opacity="1"/>
		<stop offset="0.520927" stop-color="#B69600" stop-opacity="1"/>
		<stop offset="0.706977" stop-color="#E88500" stop-opacity="1"/>
		<stop offset="0.916279" stop-color="#EEB100" stop-opacity="1"/>
		<stop offset="0.986046" stop-color="#F4DD00" stop-opacity="1"/>
	</radialGradient>
	<path fill="url(#SVGID_Fill2_)" stroke-width="4" stroke-linejoin="round" stroke="#FC9100" stroke-opacity="1" d="M 194.547,225.465L 169.226,149.117L 234.195,101.692L 153.76,102.181L 128.733,25.7363L 104.341,102.386L 23.9047,102.565L 89.2655,149.449L 64.5797,226.004L 129.366,178.33L 194.547,225.465 Z "/>
</svg>
